X:1
T:Jubilate
T:Jubilate
T:Halvdan Kjerulf
T:Th. Moore
C:Halvdan Kjerulf
Z:Th. Moore.
%%score [ ( 1 2 ) 3 4 ( 5 6 ) ]
L:1/8
Q:1/4=80
M:3/4
K:Ab
V:1 treble-8 nm="T1"
V:2 treble-8 
V:3 treble-8 nm="T2"
V:4 bass nm="B1"
V:5 bass nm="B2"
V:6 bass 
V:1
!p! A4 c2 | B4 B2 |!<(! d4 d2 | c4!<)! c2 | f4 e2 |!>(! (A2 d2) c2!>)! | B4 B2 | c6 | %8
w: For- ud-|gang- ne,|varmt be-|græd- te,|from- me|Sjæ- * le|ræk vor|Mund|
!p! c4"^poco a poco cresc." c2 | c4 c2 | c4 =d2 | e4 c2 |"^più cresc." e4 e2 | e4 e2 | e4 f2 | %15
w: Ord, som|tun- ge|Hjer- ter|let- te,|sorg- be-|tyng- te|Hjer- ter|
 (!fermata!g4 !fermata!e2) | z2"^poco più moto"!f! f2 f2 | (ec dB) e2 | f6 | e4 z2 | z2!f! f2 f2 | %21
w: let- te!|Ju- bi-|la- * * * te|a-|men!|Ju- bi|
 (ec dB) e2 | f2 e2 !fermata!f2 | !fermata!e4 z2 |!p! A4 c2 | e4 e2 |!<(! B4 d2!<)! | f4 f2 | %28
w: la- * * * te|a- men, a-|men!|Lyst som|Stjer- ner|fly- ver|det- te|
 =e4!>(! f2 | d4 c2!>)! | B4 B2 | A6 | z6 | z6 | z2"^poco più moto"!p! c2 c2 | B4!<(! c2 | %36
w: fjer- ne|Raab paa|Him- mel-|grund:|||Ju- bi-|la- te|
 (d4 e2)!<)! | c2!>(! f2 f2 | (e2!>)! d2) c2 | B6 | A2!pp! A2 A2 | a6 | (a6 | a6) |] %44
w: a- *|men, ju- bi-|la- * te|a-|men, a- men,|a-|men!|_|
V:2
 x6 | x6 | x6 | x6 | x6 | x6 | x6 | x6 | x6 | x6 | x6 | x6 | x6 | x6 | x6 | x6 | x6 | x6 | x6 | %19
 x6 | x6 | x6 | x6 | x6 | x6 | x6 | x6 | x6 | x6 | x6 | x6 | x6 | x6 | x6 | x6 | x6 | x6 | x6 | %38
 x6 | x6 | x6 | A6 | (A6 | A6) |] %44
V:3
!p! A4 A2 | E4 E2 |!<(! B4 B2 | F4!<)! F2 | (d2 c2) B2 |!>(! A4 A2!>)! | E4 E2 | E6 | %8
w: For- ud-|gang- ne,|varmt be-|græd- te,|from- * me|Sjæ- le|ræk vor|Mund|
!p! c4"^poco a poco cresc." B2 | (A2 B2) c2 | c4 c2 | c4 G2 |"^più cresc." e4 d2 | (c2 d2) e2 | %14
w: Ord, som|tun- * ge|Hjer- ter|let- te,|sorg- be-|tyng- * te|
 e4 e2 | (!fermata!e4 !fermata!B2) | z2"^poco più moto"!f! f2 f2 | (ec dB) e2 | f6 | e4 z2 | %20
w: Hjer- ter|let- te!|Ju- bi-|la- * * * te|a-|men!|
 z2!f! d2 d2 | (BA BG) A2 | d2 B2 !fermata!d2 | !fermata!B4 z2 |!p! A4 c2 | B4 B2 |!<(! B4 d2!<)! | %27
w: Ju- bi|la- * * * te|a- men, a-|men!|Lyst som|Stjer- ner|fly- ver|
 c4 c2 | c4!>(! c2 | (F2 G2) A2!>)! | A4 G2 | A6 | z6 | z6 | z2"^poco più moto"!p! A2 A2 | %35
w: det- te|fjer- ne|Raab * paa|Him- mel-|grund:|||Ju- bi-|
 (GE FD)!<(! E2 | (F4 G2)!<)! | A2!>(! d2 (d2 | d)!>)! (c2 B2) A | (A4 G2) | A2!pp! d2 c2 | %41
w: la- * * * te|a- *|men, ju- bi-|* la- * te|a- *|men, a- men,|
 (d2 c2 d2) | (c6 | c6) |] %44
w: a- * *|men!|_|
V:4
!p! E,4 E,2 | A,4 G,2 |!<(! F,4 F,2 | B,4!<)! A,2 | A,4 G,2 |!>(! F,4 (E,F,)!>)! | (A,2 G,F,) G,2 | %7
w: For- ud-|gang- ne,|varmt be-|græd- te,|from- me|Sjæ- le _|ræk _ _ vor|
 A,6 | z6 |!p!"^poco a poco cresc." (C2 B,2) A,2 | G, F, E,2 F,2 | G,4 E,2 | z6 | (E2 D2) C2 | %14
w: Mund||Ord, _ som|tun- ge Hjer- ter|let- te,||sorg- * be-|
 B, A, G,2 A,2 | (!fermata!B,4 !fermata!G,2) | z2"^poco più moto"!f! F,2 F,2 | (E,C, D,B,,) E,2 | %18
w: tyng- te Hjer- ter|let- te!|Ju- bi-|la- * * * te|
 F,6 | E,4 z2 | z2!f! A,2 A,2 | (G,A, F,G,) E,2 | A,2 G,2 !fermata!A,2 | !fermata!G,4 z2 | %24
w: a-|men!|Ju- bi|la- * * * te|a- men, a-|men!|
!p! A,4 A,2 | (A,2 G,F,) E,2 |!<(! B,4 B,2!<)! | (B,2 A,G,) F,2 | G,4!>(! =A,2 | B,4 _A,2!>)! | %30
w: Lyst som|Stjer- * * ner|fly- ver|det- * * te|fjer- ne|Raab paa|
 F,2 E,4 | A,2!p! A,2 A,2 |"^poco più moto" (G,E, F,D,) E,2 | F,6 | (E,6 | E,2) z2!<(! z2 | %36
w: Him- mel-|grund: Ju- bi|la- * * * te|a-|men,||
 (A,4 (B,2)!<)! | (C2)!>(! B,2) A,2 | G, A,!>)! (F,G,) E,2 | (F,2 E,4) | A,2!pp! F,2 E,2 | %41
w: a- *|* * men,|ju- bi- la- * te|a- *|men, a- men,|
 (F,2 E,2 F,2) | (E,6 | E,6) |] %44
w: a- * *|men!|_|
V:5
!p! C,4 A,,2 | E,4 E,2 |!<(! B,,4 D,2 | F,4!<)! F,2 | D,4 E,2 |!>(! (F,2 B,,2) (C,D,)!>)! | %6
w: For- ud-|gang- ne,|varmt be-|græd- te,|from- me|Sjæ- * le _|
 E,4 E,2 | A,,6 | z6 |!p! (A,2"^poco a poco cresc." G,2) F,2 | E, =D, C,2 C,2 | C,4 C,2 | z6 | %13
w: ræk vor|Mund||Ord, _ som|tun- ge Hjer- ter|let- te,||
 (C2 B,2) A,2 | G, F, E,2 E,2 | (!fermata!E,4 !fermata!E,2) | z2"^poco più moto"!f! F,2 F,2 | %17
w: sorg- * be-|tyng- te Hjer- ter|let- te!|Ju- bi-|
 (E,C, D,B,,) E,2 | F,6 | E,4 z2 | z2!f! D,2 D,2 | (E,F, B,,E,) C,2 | B,,2 E,2 !fermata!B,,2 | %23
w: la- * * * te|a-|men!|Ju- bi|la- * * * te|a- men, a-|
 !fermata!E,4 z2 |!p! A,4 A,2 | E,4 G,2 |!<(! B,4 B,2!<)! | F,4 A,2 | C,4!>(! F,,2 | %29
w: men!|Lyst som|Stjer- ner|fly- ver|det- te|fjer- ne|
 (B,,2 E,2) F,2!>)! | D,2 E,4 | A,,6 | z6 | z6 | z2 A,,2 A,,2 | A,,4!<(! A,,2 | A,,6!<)! | %37
w: Raab * paa|Him- mel-|grund:|||Ju- bi-|la- te|a-|
 A,,2!>(! z2 z2 | z2!>)! z2 A,, C, | D, (C,/B,,/) E,4 | A,,2!pp! A,,2 A,,2 | A,,6 | (A,,6 | %43
w: men,|Ju- bi-|la- te _ a-|men, a- men,|a-|men!|
 A,,6) |] %44
w: _|
V:6
 x6 | x6 | x6 | x6 | x6 | x6 | x6 | x6 | x6 | x6 | x6 | x6 | x6 | x6 | x6 | x6 | x6 | x6 | x6 | %19
 x6 | x6 | x6 | x6 | E,,4 x2 | x6 | x6 | x6 | x6 | x6 | x6 | x6 | x6 | x6 | x6 | x6 | x6 | x6 | %37
 x6 | x6 | x6 | x6 | x6 | x6 | x6 |] %44

